Dominus_Dark_Funeral/scalable/apps/addressbook.svg

<?xml version="1.0" encoding="UTF-8" standalone="no"?><svg xmlns:dc="http://purl.org/dc/elements/1.1/" xmlns:cc="http://creativecommons.org/ns#" xmlns:rdf="http://www.w3.org/1999/02/22-rdf-syntax-ns#" xmlns="http://www.w3.org/2000/svg" xmlns:xlink="http://www.w3.org/1999/xlink" width="48" height="48" viewBox="0 0 12.7 12.7"><metadata><rdf:RDF><cc:Work><dc:format>image/svg+xml</dc:format><dc:type rdf:resource="http://purl.org/dc/dcmitype/StillImage"/><dc:title/></cc:Work></rdf:RDF></metadata><defs><linearGradient id="b"><stop offset="0" stop-color="#8aa678"/><stop offset="1" stop-color="#b7c8be"/></linearGradient><linearGradient id="c"><stop offset="0" stop-color="#1a1a1a"/><stop offset="1" stop-color="#4d4d4d"/></linearGradient><linearGradient id="a"><stop offset="0" stop-color="#060000"/><stop offset="1" stop-color="#060000" stop-opacity="0"/></linearGradient><linearGradient xlink:href="#a" id="e" gradientUnits="userSpaceOnUse" x1="-2.54" y1="284.56" x2="13.95" y2="292.63"/><linearGradient xlink:href="#b" id="d" x1="9.25" y1=".04" x2="6.05" y2="13.24" gradientUnits="userSpaceOnUse"/><linearGradient xlink:href="#c" id="f" x1="2.45" y1="1.21" x2="10.26" y2="5.29" gradientUnits="userSpaceOnUse"/></defs><path fill="url(#d)" d="M6.35.1C4.81.1 3.57.38 2.66.96A3.67 3.67 0 0 0 1 4.22c0 1.91 1.54 4.47 2.01 5.2.54.85 1.13 1.61 1.65 2.16.68.7 1.21 1.03 1.69 1.03s1.01-.33 1.69-1.03a15.2 15.2 0 0 0 1.65-2.15c.47-.74 2-3.3 2-5.21 0-1.42-.57-2.54-1.65-3.25A6.75 6.75 0 0 0 6.35.1z"/><path transform="translate(0 -284.3)" opacity=".45" fill="url(#e)" d="M7.41 296.41c.2-.15.4-.29.63-.53a15.2 15.2 0 0 0 1.65-2.15c.23-.37.74-1.2 1.18-2.17.22-.48.43-1 .58-1.52.1-.37.13-.71.17-1.06l-2.68-2.66-1.9-.33H5.02l-1.32 1.32-.83 1.97.73 3.26z"/><path d="M6.43 1.39c-1.63 0-3.1.99-3.7 2.5a4.37 4.37 0 0 0 0 3.2c.38 1 1.16 1.8 2.16 2.2a4 4 0 0 0 4.08-.62l-.02-.2c-.9.8-2.64.5-3.75.02a3.02 3.02 0 0 1-1.7-1.73 3.46 3.46 0 0 1 .12-2.82 3.11 3.11 0 0 1 2.88-1.7c.5 0 .95.1 1.37.3.66.32 1.18.9 1.43 1.59.09.26.13.55.13.85 0 .48-.1.87-.31 1.18-.21.3-.5.49-.87.55V3.54h-.92v.6c-.09-.21-.24-.39-.43-.5-.2-.13-.43-.2-.7-.2-.5 0-.91.2-1.23.58-.32.38-.48.88-.48 1.48s.16 1.1.47 1.49c.32.38.74.56 1.25.56.26 0 .49-.05.69-.17.2-.12.34-.3.42-.5v.7h.18c.88 0 1.56-.23 2.04-.7a2.5 2.5 0 0 0 .72-1.91 3.45 3.45 0 0 0-.66-2.08 3.6 3.6 0 0 0-1.36-1.13 4.1 4.1 0 0 0-1.8-.4zm-.06 2.9c.27 0 .48.12.64.33.16.22.24.5.24.88 0 .37-.08.66-.24.88a.74.74 0 0 1-.63.33.74.74 0 0 1-.63-.33 1.5 1.5 0 0 1-.23-.88c0-.37.07-.66.23-.88.14-.2.37-.33.62-.32z" fill="#dbe3de"/><path d="M6.43.96c-1.63 0-3.1.99-3.7 2.5a4.37 4.37 0 0 0 0 3.2c.39 1 1.17 1.8 2.16 2.2 1.37.56 2.82.4 3.96-.55l-.45-.73c-.9.81-2.09.95-3.2.48a3.02 3.02 0 0 1-1.7-1.73 3.46 3.46 0 0 1 .12-2.82 3.11 3.11 0 0 1 2.88-1.7c.5 0 .95.1 1.37.3.67.32 1.18.9 1.43 1.59.09.26.13.55.13.85 0 .48-.1.87-.31 1.18-.21.3-.5.49-.87.55V3.11h-.92v.6c-.09-.2-.24-.38-.43-.5-.2-.13-.43-.2-.7-.2-.5 0-.91.2-1.23.58-.32.38-.48.88-.48 1.48 0 .61.16 1.1.47 1.49.32.38.74.56 1.25.56.26 0 .49-.05.69-.17.2-.12.34-.3.42-.5v.7h.18c.88 0 1.56-.23 2.04-.7a2.5 2.5 0 0 0 .72-1.91 3.45 3.45 0 0 0-.66-2.08 3.6 3.6 0 0 0-1.36-1.13 4.1 4.1 0 0 0-1.8-.39zm-.06 2.9c.27 0 .48.12.64.33.16.22.24.5.24.88 0 .37-.08.66-.24.88a.74.74 0 0 1-.63.33.74.74 0 0 1-.63-.33 1.5 1.5 0 0 1-.23-.88c0-.37.07-.66.23-.88.14-.2.37-.32.62-.32z" fill="#55624f"/><path d="M6.43 1.2a3.98 3.98 0 0 0-3.7 2.5 4.37 4.37 0 0 0 0 3.2 3.88 3.88 0 0 0 2.16 2.2 4 4 0 0 0 4.08-.62l-.47-.74a3.1 3.1 0 0 1-3.3.56 3.02 3.02 0 0 1-1.7-1.73 3.46 3.46 0 0 1 .12-2.82 3.11 3.11 0 0 1 2.88-1.7c.5 0 .95.1 1.37.3A2.83 2.83 0 0 1 9.3 3.94c.09.26.13.55.13.85 0 .48-.1.87-.31 1.18-.21.3-.5.49-.87.55V3.35h-.92v.6a1.05 1.05 0 0 0-.43-.5c-.2-.13-.43-.2-.7-.2-.5 0-.91.2-1.23.58-.32.38-.48.88-.48 1.48 0 .61.16 1.1.47 1.49.32.38.74.56 1.25.56.26 0 .49-.05.69-.17.2-.12.34-.3.42-.5v.7h.18c.88 0 1.56-.23 2.04-.7a2.5 2.5 0 0 0 .72-1.91A3.45 3.45 0 0 0 9.6 2.7a3.6 3.6 0 0 0-1.36-1.13 4.1 4.1 0 0 0-1.8-.39zm-.06 2.9c.27 0 .48.12.64.33.16.22.24.5.24.88 0 .37-.08.66-.24.88a.74.74 0 0 1-.63.33.74.74 0 0 1-.63-.33 1.5 1.5 0 0 1-.23-.88c0-.37.07-.66.23-.88a.74.74 0 0 1 .62-.32z" fill="url(#f)"/><path opacity=".5" d="M1.04 3.9c0 .1-.04.2-.04.32 0 1.91 1.54 4.47 2.01 5.2.54.85 1.13 1.61 1.65 2.16.68.7 1.21 1.03 1.69 1.03s1.01-.33 1.69-1.03a15.2 15.2 0 0 0 1.65-2.15c.47-.74 2-3.3 2-5.21 0-.11-.02-.21-.03-.32a5.5 5.5 0 0 1-.21 1.3c-.15.53-.36 1.05-.58 1.53-.44.97-.95 1.8-1.18 2.17a15.2 15.2 0 0 1-1.65 2.15 4.9 4.9 0 0 1-.92.78c-.28.17-.53.25-.77.25s-.5-.08-.77-.25a4.76 4.76 0 0 1-.92-.78A14.41 14.41 0 0 1 3.01 8.9a19.2 19.2 0 0 1-1.18-2.17c-.22-.48-.43-1-.58-1.52a5.66 5.66 0 0 1-.21-1.31z"/></svg>

<?xml version="1.0" encoding="UTF-8" standalone="no"?>
<svg
   xmlns:dc="http://purl.org/dc/elements/1.1/"
   xmlns:cc="http://creativecommons.org/ns#"
   xmlns:rdf="http://www.w3.org/1999/02/22-rdf-syntax-ns#"
   xmlns:svg="http://www.w3.org/2000/svg"
   xmlns="http://www.w3.org/2000/svg"
   xmlns:xlink="http://www.w3.org/1999/xlink"
   xmlns:sodipodi="http://sodipodi.sourceforge.net/DTD/sodipodi-0.dtd"
   xmlns:inkscape="http://www.inkscape.org/namespaces/inkscape"
   width="48"
   height="48"
   viewBox="0 0 12.7 12.7"
   version="1.1"
   id="svg36"
   sodipodi:docname="addressbook.svg"
   inkscape:version="0.92.4 (5da689c313, 2019-01-14)">
  <sodipodi:namedview
     pagecolor="#ffffff"
     bordercolor="#666666"
     borderopacity="1"
     objecttolerance="10"
     gridtolerance="10"
     guidetolerance="10"
     inkscape:pageopacity="0"
     inkscape:pageshadow="2"
     inkscape:window-width="1112"
     inkscape:window-height="480"
     id="namedview38"
     showgrid="false"
     inkscape:zoom="4.9166667"
     inkscape:cx="2.1355932"
     inkscape:cy="24"
     inkscape:window-x="0"
     inkscape:window-y="25"
     inkscape:window-maximized="0"
     inkscape:current-layer="svg36" />
  <metadata
     id="metadata2">
    <rdf:RDF>
      <cc:Work>
        <dc:format>image/svg+xml</dc:format>
        <dc:type
           rdf:resource="http://purl.org/dc/dcmitype/StillImage" />
        <dc:title></dc:title>
      </cc:Work>
    </rdf:RDF>
  </metadata>
  <defs
     id="defs22">
    <linearGradient
       id="b">
      <stop
         offset="0"
         stop-color="#8aa678"
         id="stop4" />
      <stop
         offset="1"
         stop-color="#b7c8be"
         id="stop6" />
    </linearGradient>
    <linearGradient
       id="c">
      <stop
         offset="0"
         stop-color="#1a1a1a"
         id="stop9" />
      <stop
         offset="1"
         stop-color="#4d4d4d"
         id="stop11" />
    </linearGradient>
    <linearGradient
       id="a">
      <stop
         offset="0"
         stop-color="#060000"
         id="stop14" />
      <stop
         offset="1"
         stop-color="#060000"
         stop-opacity="0"
         id="stop16" />
    </linearGradient>
    <linearGradient
       xlink:href="#a"
       id="e"
       gradientUnits="userSpaceOnUse"
       x1="-2.54"
       y1="284.56"
       x2="13.95"
       y2="292.63"
       gradientTransform="translate(0,-284.3)" />
    <linearGradient
       xlink:href="#b"
       id="d"
       x1="9.25"
       y1=".04"
       x2="6.05"
       y2="13.24"
       gradientUnits="userSpaceOnUse" />
    <linearGradient
       xlink:href="#c"
       id="f"
       x1="2.45"
       y1="1.21"
       x2="10.26"
       y2="5.29"
       gradientUnits="userSpaceOnUse" />
  </defs>
  <path
     d="M 6.35,0.1 C 4.81,0.1 3.57,0.38 2.66,0.96 A 3.67,3.67 0 0 0 1,4.22 c 0,1.91 1.54,4.47 2.01,5.2 0.54,0.85 1.13,1.61 1.65,2.16 0.68,0.7 1.21,1.03 1.69,1.03 0.48,0 1.01,-0.33 1.69,-1.03 A 15.2,15.2 0 0 0 9.69,9.43 c 0.47,-0.74 2,-3.3 2,-5.21 0,-1.42 -0.57,-2.54 -1.65,-3.25 A 6.75,6.75 0 0 0 6.35,0.1 Z"
     id="path24"
     style="fill:url(#d)"
     inkscape:connector-curvature="0" />
  <path
     d="m 7.41,12.11 c 0.2,-0.15 0.4,-0.29 0.63,-0.53 A 15.2,15.2 0 0 0 9.69,9.43 c 0.23,-0.37 0.74,-1.2 1.18,-2.17 0.22,-0.48 0.43,-1 0.58,-1.52 0.1,-0.37 0.13,-0.71 0.17,-1.06 L 8.94,2.02 7.04,1.69 H 5.02 L 3.7,3.01 2.87,4.98 3.6,8.24 Z"
     id="path26"
     style="opacity:0.45;fill:url(#e)"
     inkscape:connector-curvature="0" />
  <path
     d="m 6.43,1.39 c -1.63,0 -3.1,0.99 -3.7,2.5 a 4.37,4.37 0 0 0 0,3.2 c 0.38,1 1.16,1.8 2.16,2.2 A 4,4 0 0 0 8.97,8.67 L 8.95,8.47 C 8.05,9.27 6.31,8.97 5.2,8.49 A 3.02,3.02 0 0 1 3.5,6.76 3.46,3.46 0 0 1 3.62,3.94 3.11,3.11 0 0 1 6.5,2.24 c 0.5,0 0.95,0.1 1.37,0.3 0.66,0.32 1.18,0.9 1.43,1.59 0.09,0.26 0.13,0.55 0.13,0.85 0,0.48 -0.1,0.87 -0.31,1.18 -0.21,0.3 -0.5,0.49 -0.87,0.55 V 3.54 H 7.33 v 0.6 C 7.24,3.93 7.09,3.75 6.9,3.64 6.7,3.51 6.47,3.44 6.2,3.44 5.7,3.44 5.29,3.64 4.97,4.02 4.65,4.4 4.49,4.9 4.49,5.5 4.49,6.1 4.65,6.6 4.96,6.99 5.28,7.37 5.7,7.55 6.21,7.55 6.47,7.55 6.7,7.5 6.9,7.38 7.1,7.26 7.24,7.08 7.32,6.88 v 0.7 H 7.5 c 0.88,0 1.56,-0.23 2.04,-0.7 A 2.5,2.5 0 0 0 10.26,4.97 3.45,3.45 0 0 0 9.6,2.89 3.6,3.6 0 0 0 8.24,1.76 4.1,4.1 0 0 0 6.44,1.36 Z m -0.06,2.9 c 0.27,0 0.48,0.12 0.64,0.33 0.16,0.22 0.24,0.5 0.24,0.88 0,0.37 -0.08,0.66 -0.24,0.88 A 0.74,0.74 0 0 1 6.38,6.71 0.74,0.74 0 0 1 5.75,6.38 1.5,1.5 0 0 1 5.52,5.5 C 5.52,5.13 5.59,4.84 5.75,4.62 5.89,4.42 6.12,4.29 6.37,4.3 Z"
     id="path28"
     inkscape:connector-curvature="0"
     style="fill:#dbe3de" />
  <path
     d="m 6.43,0.96 c -1.63,0 -3.1,0.99 -3.7,2.5 a 4.37,4.37 0 0 0 0,3.2 c 0.39,1 1.17,1.8 2.16,2.2 1.37,0.56 2.82,0.4 3.96,-0.55 L 8.4,7.58 C 7.5,8.39 6.31,8.53 5.2,8.06 A 3.02,3.02 0 0 1 3.5,6.33 3.46,3.46 0 0 1 3.62,3.51 3.11,3.11 0 0 1 6.5,1.81 c 0.5,0 0.95,0.1 1.37,0.3 0.67,0.32 1.18,0.9 1.43,1.59 0.09,0.26 0.13,0.55 0.13,0.85 0,0.48 -0.1,0.87 -0.31,1.18 -0.21,0.3 -0.5,0.49 -0.87,0.55 V 3.11 H 7.33 v 0.6 C 7.24,3.51 7.09,3.33 6.9,3.21 6.7,3.08 6.47,3.01 6.2,3.01 5.7,3.01 5.29,3.21 4.97,3.59 4.65,3.97 4.49,4.47 4.49,5.07 4.49,5.68 4.65,6.17 4.96,6.56 5.28,6.94 5.7,7.12 6.21,7.12 6.47,7.12 6.7,7.07 6.9,6.95 7.1,6.83 7.24,6.65 7.32,6.45 v 0.7 H 7.5 c 0.88,0 1.56,-0.23 2.04,-0.7 A 2.5,2.5 0 0 0 10.26,4.54 3.45,3.45 0 0 0 9.6,2.46 3.6,3.6 0 0 0 8.24,1.33 4.1,4.1 0 0 0 6.44,0.94 Z m -0.06,2.9 c 0.27,0 0.48,0.12 0.64,0.33 0.16,0.22 0.24,0.5 0.24,0.88 0,0.37 -0.08,0.66 -0.24,0.88 A 0.74,0.74 0 0 1 6.38,6.28 0.74,0.74 0 0 1 5.75,5.95 1.5,1.5 0 0 1 5.52,5.07 C 5.52,4.7 5.59,4.41 5.75,4.19 5.89,3.99 6.12,3.87 6.37,3.87 Z"
     id="path30"
     inkscape:connector-curvature="0"
     style="fill:#55624f" />
  <path
     d="m 6.43,1.2 a 3.98,3.98 0 0 0 -3.7,2.5 4.37,4.37 0 0 0 0,3.2 3.88,3.88 0 0 0 2.16,2.2 4,4 0 0 0 4.08,-0.62 L 8.5,7.74 A 3.1,3.1 0 0 1 5.2,8.3 3.02,3.02 0 0 1 3.5,6.57 3.46,3.46 0 0 1 3.62,3.75 3.11,3.11 0 0 1 6.5,2.05 c 0.5,0 0.95,0.1 1.37,0.3 A 2.83,2.83 0 0 1 9.3,3.94 C 9.39,4.2 9.43,4.49 9.43,4.79 9.43,5.27 9.33,5.66 9.12,5.97 8.91,6.27 8.62,6.46 8.25,6.52 V 3.35 H 7.33 v 0.6 A 1.05,1.05 0 0 0 6.9,3.45 C 6.7,3.32 6.47,3.25 6.2,3.25 5.7,3.25 5.29,3.45 4.97,3.83 4.65,4.21 4.49,4.71 4.49,5.31 4.49,5.92 4.65,6.41 4.96,6.8 5.28,7.18 5.7,7.36 6.21,7.36 6.47,7.36 6.7,7.31 6.9,7.19 7.1,7.07 7.24,6.89 7.32,6.69 v 0.7 H 7.5 c 0.88,0 1.56,-0.23 2.04,-0.7 A 2.5,2.5 0 0 0 10.26,4.78 3.45,3.45 0 0 0 9.6,2.7 3.6,3.6 0 0 0 8.24,1.57 4.1,4.1 0 0 0 6.44,1.18 Z M 6.37,4.1 c 0.27,0 0.48,0.12 0.64,0.33 0.16,0.22 0.24,0.5 0.24,0.88 0,0.37 -0.08,0.66 -0.24,0.88 A 0.74,0.74 0 0 1 6.38,6.52 0.74,0.74 0 0 1 5.75,6.19 1.5,1.5 0 0 1 5.52,5.31 C 5.52,4.94 5.59,4.65 5.75,4.43 A 0.74,0.74 0 0 1 6.37,4.11 Z"
     id="path32"
     style="fill:url(#f)"
     inkscape:connector-curvature="0" />
  <path
     d="M 1.04,3.9 C 1.04,4 1,4.1 1,4.22 c 0,1.91 1.54,4.47 2.01,5.2 0.54,0.85 1.13,1.61 1.65,2.16 0.68,0.7 1.21,1.03 1.69,1.03 0.48,0 1.01,-0.33 1.69,-1.03 A 15.2,15.2 0 0 0 9.69,9.43 c 0.47,-0.74 2,-3.3 2,-5.21 0,-0.11 -0.02,-0.21 -0.03,-0.32 A 5.5,5.5 0 0 1 11.45,5.2 C 11.3,5.73 11.09,6.25 10.87,6.73 10.43,7.7 9.92,8.53 9.69,8.9 A 15.2,15.2 0 0 1 8.04,11.05 4.9,4.9 0 0 1 7.12,11.83 C 6.84,12 6.59,12.08 6.35,12.08 6.11,12.08 5.85,12 5.58,11.83 A 4.76,4.76 0 0 1 4.66,11.05 14.41,14.41 0 0 1 3.01,8.9 19.2,19.2 0 0 1 1.83,6.73 C 1.61,6.25 1.4,5.73 1.25,5.21 A 5.66,5.66 0 0 1 1.04,3.9 Z"
     id="path34"
     inkscape:connector-curvature="0"
     style="opacity:0.5" />
</svg>
